!!!!SEGMENT: pl-cz--iii-246--003_gimeshoffer--partita-es-finale.krn
!!!cenid: 17xx:2183
!!!COM: Gimeshoffer
!!!COM-rismid: pe30096330
!!!CDT: <1790->1810
!!!CNT:
!!!OPR: Partita Es
!!!OTL: Finale
!!!OMV: 003
!!!PDT:
!!!AGN: Secular
!!!SMS-siglum: PL-CZ
!!!SMS-shelfmark: III-246
!!!SMS-shelfwork: 001-003 M
!!!SMS-variant:
!!!SMS-altvar:
!!!NIFC-rismid: 300000341
!!!URL-scan: http://repozytorium.nifc.pl/skany/pl-cz-nut--iii-246
!!!ONB-nifc: UWAGA: częśći Partity: 1. Allegro moderato, 2. Menuetto, 3. Finale
!!!key:
**kern	**dynam	**kern	**dynam	**kern	**dynam	**kern	**dynam	**kern
*part5	*part5	*part4	*part4	*part3	*part3	*part2	*part2	*part1
*staff5	*	*staff4	*	*staff3	*	*staff2	*	*staff1
*group2	*group2	*group2	*group2	*group1	*group1	*group1	*group1	*group1
*Iempty	*	*Iempty	*	*Ifagot	*	*Iclars	*	*Iclars
*I"Cornu. Secundo	*	*I"Cornu. Primo.	*	*I"Fagotto	*	*I"Clarinetto. Secundo.	*	*I"Clarinetto. Primo.
*I'cor 2	*	*I'cor 1	*	*I'fag	*	*I'cl 2	*	*I'cl 1
*clefG2	*	*clefG2	*	*clefF4	*	*clefG2	*	*clefG2
*ITrd5c9	*	*ITrd5c9	*	*	*	*ITrd1c2	*	*ITrd1c2
*k[b-e-a-]	*	*k[b-e-a-]	*	*k[b-e-a-]	*	*k[b-e-a-]	*	*k[b-e-a-]
*E-:	*	*E-:	*	*E-:	*	*E-:	*	*E-:
*M2/2	*	*M2/2	*	*M2/2	*	*M2/2	*	*M2/2
*met(c|)	*	*met(c|)	*	*met(c|)	*	*met(c|)	*	*met(c|)
*>[A,A,B,B,C,A,A,B,B]	*	*>[A,A,B,B,C,A,A,B,B]	*	*>[A,A,B,B,C,A,A,B,B]	*	*>[A,A,B,B,C,A,A,B,B]	*	*>[A,A,B,B,C,A,A,B,B]
=1	=1	=1	=1	=1	=1	=1	=1	=1
*>A	*	*>A	*	*>A	*	*>A	*	*>A
*	*	*	*	*	*	*all\right	*	*all\right
*	*	*	*	*	*	*2\right	*	*2\right
!LO:TX:t=P:problem:klucz niewidoczny - defekt źródła	!	!	!	!LO:TX:t=P:problem:kolejność i wysokość znaków przykluczowych: BB- AA- E-	!	!	!	!
!LO:TX:a:t=6	!	!LO:TX:a:t=6	!	!LO:TX:a:t=4	!	!LO:TX:a:t=2	!	!
00r	.	00r	.	00r	.	0r	.	1ee-
=2	=2	=2	=2	=2	=2	=2	=2	=2
.	.	.	.	.	.	.	.	1bb-
=3	=3	=3	=3	=3	=3	=3	=3	=3
.	.	.	.	.	.	1e-	.	4r
.	.	.	.	.	.	.	.	4gg'\
.	.	.	.	.	.	.	.	4ff'\
.	.	.	.	.	.	.	.	4ee-'\
=4	=4	=4	=4	=4	=4	=4	=4	=4
.	.	.	.	.	.	1b-	.	4dd'\
.	.	.	.	.	.	.	.	4cc'\
.	.	.	.	.	.	.	.	4b-'\
.	.	.	.	.	.	.	.	4a-'\
=5	=5	=5	=5	=5	=5	=5	=5	=5
0r	.	0r	.	1E-	.	4r	.	4g/
.	.	.	.	.	.	4gg\	.	4bb-\
.	.	.	.	.	.	4ff\	.	4aa-\
.	.	.	.	.	.	4ee-\	.	4gg\
=6	=6	=6	=6	=6	=6	=6	=6	=6
.	.	.	.	1B-	.	4dd\	.	4ff\
.	.	.	.	.	.	4cc\	.	4ee-\
.	.	.	.	.	.	4b-\	.	4dd\
.	.	.	.	.	.	4dd\	.	4ff\
=7	=7	=7	=7	=7	=7	=7	=7	=7
!	!LO:DY:b:rj:t=f n	!	!LO:DY:b:t=f&colon;	!	!	!	!	!
1E-	f	1e-	f	4r	.	4ee-\	.	4gg\
.	.	.	.	4G\	.	4b-\	.	4bb-\
.	.	.	.	4F\	.	4a-\	.	4bb-\
.	.	.	.	4E-\	.	4g\	.	4bb-\
=8	=8	=8	=8	=8	=8	=8	=8	=8
1B-	.	1b-	.	4D\	.	4f/	.	2bb-\
.	.	.	.	4C\	.	4e-/	.	.
.	.	.	.	4BB-\	.	4d/	.	4ff\
.	.	.	.	4D\	.	4f/	.	4aa-\
=9	=9	=9	=9	=9	=9	=9	=9	=9
!	!	!	!	!	!	!	!	!LO:TX:t=P:problem:takt nieczytelny - defekt źródła
4e-\	.	4g\	.	4E-\	.	4r	.	1ryy
4r	.	4r	.	4r	.	4b-\	.	.
4B-/	.	4f\	.	4D\	.	4r	.	.
4r	.	4r	.	4r	.	4b-\	.	.
!	!	!	!	!	!	!	!	!LO:LB:g=original
=10	=10	=10	=10	=10	=10	=10	=10	=10
4f\	.	4f\	.	4AAn/	.	4r	.	4r
4r	.	4r	.	4r	.	4cc\	.	4ee-\
4B-/	.	4f\	.	4BB-/	.	4r	.	4r
4r	.	4r	.	4r	.	4b-\	.	4dd\
=11	=11	=11	=11	=11	=11	=11	=11	=11
4f\	.	4f\	.	4C/	.	4r	.	4r
4r	.	4r	.	4r	.	4ee-\	.	4aa\
4B-/	.	4f\	.	4BB-/	.	4r	.	4r
4r	.	4r	.	4r	.	4dd\	.	4bb-\
!	!	!	!	!LO:LB:g=original	!	!LO:LB:g=original	!	!
=12	=12	=12	=12	=12	=12	=12	=12	=12
4G/	.	4g\	.	4E-\	.	4r	.	4r
4r	.	4r	.	4r	.	4ee-\	.	4ccc\
4f\	.	4f\	.	4F\	.	4r	.	4r
4r	.	4r	.	4r	.	4cc\	.	4aa\
=13	=13	=13	=13	=13	=13	=13	=13	=13
4B-/	.	4f\	.	4BB-/	.	4r	.	4r
4r	.	4r	.	4r	.	4dd\	.	4bb-\
!	!	!LO:TX:t=P:problem:fragment niewidoczny - defekt źródła	!	!	!	!	!	!
4f\	.	4f\yy	.	4FF/	.	4r	.	4r
4r	.	4ryy	.	4r	.	4cc\	.	4aa\
!	!	!LO:LB:g=original	!	!	!	!	!	!
=14	=14	=14	=14	=14	=14	=14	=14	=14
*	*	*2\right	*	*	*	*2\right	*	*
2B-/	.	2f\	.	2BB-/	.	2dd\	.	4bb-\
.	.	.	.	.	.	.	.	4b-\
2r	.	2r	.	2r	.	2r	.	4cc\
.	.	.	.	.	.	.	.	4dd\
=15:|!|:	=15:|!|:	=15:|!|:	=15:|!|:	=15:|!|:	=15:|!|:	=15:|!|:	=15:|!|:	=15:|!|:
*>B	*	*>B	*	*>B	*	*>B	*	*>B
!LO:TX:a:t=1	!	!LO:TX:a:t=I	!	!LO:TX:a:t=I	!	!LO:TX:a:t=I.	!	!
1r	.	1r	.	1r	.	1r	.	1ee-
!LO:LB:g=original	!	!	!	!	!	!	!	!
=16	=16	=16	=16	=16	=16	=16	=16	=16
1E-	.	1e-	.	1G	.	1b-	.	1dd-X
=17	=17	=17	=17	=17	=17	=17	=17	=17
!	!	!	!	!LO:SIC:v:s=1A-	!	!	!LO:DY:b:t=p&colon;	!
1E-	.	1e-	.	1An	.	1cc	p	4cc\
.	.	.	.	.	.	.	.	4ee-\
.	.	.	.	.	.	.	.	4r
.	.	.	.	.	.	.	.	4ee-\
=18	=18	=18	=18	=18	=18	=18	=18	=18
1E-	.	1e-	.	1B-	.	1dd-X	.	4ee-\
.	.	.	.	.	.	.	.	4gg\
.	.	.	.	.	.	.	.	4r
.	.	.	.	.	.	.	.	4gg\
=19	=19	=19	=19	=19	=19	=19	=19	=19
!	!	!	!LO:DY:b:t=f&colon;	!	!	!	!	!
2E-/	.	2e-\	f	4A-X\	.	4cc\	.	4aa-\
.	.	.	.	4A-\	.	4cc\	.	4ee-\
!	!	!	!	!	!	!	!	!LO:TX:t=P:problem:fragment nieczytelny - defekt źródła
4E-/	.	4e-\	.	4G\	.	4b-\	.	4ryy
4E-/	.	4e-\	.	4G\	.	4b-\	.	4ryy
!	!	!	!	!	!	!	!	!LO:LB:g=original
=20	=20	=20	=20	=20	=20	=20	=20	=20
4E-/	.	4e-\	.	4A-\	.	4a-\	.	4cc\
4r	.	4r	.	4r	.	4r	.	4cc\
2r	.	2r	.	2r	.	2r	.	4ddn\
.	.	.	.	.	.	.	.	4eeX\
=21	=21	=21	=21	=21	=21	=21	=21	=21
!LO:TX:a:t=1	!	!LO:TX:a:t=I	!	!LO:TX:a:t=I	!	!LO:TX:a:t=I.	!	!
1r	.	1r	.	1r	.	1r	.	1ff
=22	=22	=22	=22	=22	=22	=22	=22	=22
!	!LO:DY:b:t=p&colon;	!	!	!	!LO:DY:b:t=p&colon;	!	!	!
!	!	!	!	!	!	!	!	!LO:N:acc=n
1f	p	1f	.	1An	p	1cc	.	1ee-
=23	=23	=23	=23	=23	=23	=23	=23	=23
1B-	.	1f	.	1B-	.	1ddn	.	4ddn\
.	.	.	.	.	.	.	.	4ff\
.	.	.	.	.	.	.	.	4r
.	.	.	.	.	.	.	.	4ff\
!	!	!	!	!LO:LB:g=original	!	!	!	!
=24	=24	=24	=24	=24	=24	=24	=24	=24
1f	.	1f	.	1c	.	1ee-	.	4ff\
.	.	.	.	.	.	.	.	4aa\
.	.	.	.	.	.	.	.	4r
.	.	.	.	.	.	.	.	4aa\
=25	=25	=25	=25	=25	=25	=25	=25	=25
!	!	!	!LO:DY:b:t=f&colon;	!	!	!	!	!
4B-/	.	4f\	f	4B-\	.	4dd\	.	4bb-\
4B-/	.	4f\	.	4B-\	.	4dd\	.	4ff\
4f\	.	4f\	.	4An\	.	4cc\	.	4ee-\
!LO:SIC:v:s=4f	!	!	!	!	!	!	!	!
4e-\	.	4f\	.	4A\	.	4cc\	.	4ee-\
!	!	!LO:LB:g=original	!	!	!	!LO:LB:g=original	!	!
=26	=26	=26	=26	=26	=26	=26	=26	=26
4B-/	.	4f\	.	4B-\	.	4b-\	.	4.dd\
4r	.	4r	.	4r	.	4r	.	.
.	.	.	.	.	.	.	.	8ff\
2r	.	2r	.	2r	.	2r	.	8aa-\L
.	.	.	.	.	.	.	.	8ff\
.	.	.	.	.	.	.	.	8dd\
.	.	.	.	.	.	.	.	8ff\J
=27	=27	=27	=27	=27||	=27	=27	=27	=27
!	!	!	!	!LO:TX:t=P:problem:kolejność znaków: BB- AA- E-	!	!	!	!
!LO:TX:a:t=6	!	!LO:TX:a:t=6	!	!LO:TX:a:t=4	!	!LO:TX:a:t=2.	!	!
00r	.	00r	.	00r	.	1r	.	1ee-
=28	=28	=28	=28	=28	=28	=28	=28	=28
.	.	.	.	.	.	1r	.	1bb-
=29	=29	=29	=29	=29	=29	=29	=29	=29
.	.	.	.	.	.	1e-	.	4r
.	.	.	.	.	.	.	.	4gg\
!	!	!	!	!	!	!	!	!LO:TX:t=P:problem:fragment nieczytelny - defekt źródła
.	.	.	.	.	.	.	.	4ryy
.	.	.	.	.	.	.	.	4ryy
!	!	!	!	!	!	!	!	!LO:LB:g=original
=30	=30	=30	=30	=30	=30	=30	=30	=30
.	.	.	.	.	.	1b-	.	4dd\
.	.	.	.	.	.	.	.	4cc\
.	.	.	.	.	.	.	.	4b-\
.	.	.	.	.	.	.	.	4a-\
=31	=31	=31	=31	=31	=31	=31	=31	=31
0r	.	0r	.	1E-	.	4r	.	4g/
.	.	.	.	.	.	4gg\	.	4bb-\
.	.	.	.	.	.	4ff\	.	4aa-\
.	.	.	.	.	.	4ee-\	.	4gg\
=32	=32	=32	=32	=32	=32	=32	=32	=32
.	.	.	.	1B-	.	4dd\	.	4ff\
.	.	.	.	.	.	4cc\	.	4ee-\
.	.	.	.	.	.	4b-\	.	4dd\
.	.	.	.	.	.	4dd\	.	4ff\
!LO:LB:g=original	!	!	!	!	!	!	!	!
=33||	=33	=33	=33	=33	=33	=33	=33	=33
!	!LO:DY:a:t=f&colon;	!	!	!	!	!	!	!
1E-	f	1e-	f	4r	.	4ee-\	.	4gg\
.	.	.	.	4G\	.	4b-\	.	4bb-\
.	.	.	.	4F\	.	4a-\	.	4bb-\
.	.	.	.	4E-\	.	4g\	.	4bb-\
=34	=34	=34	=34	=34	=34	=34	=34	=34
1B-	.	1b-	.	4D\	.	4f/	.	2bb-\
.	.	.	.	4C\	.	4e-/	.	.
.	.	.	.	4BB-\	.	4d/	.	4ff\
.	.	.	.	4D\	.	4f/	.	4aa-X\
=35	=35	=35	=35	=35	=35	=35	=35	=35
4e-\	.	4g\	.	4E-\	.	4r	.	4r
4r	.	4r	.	4r	.	4b-\	.	4gg\
4B-/	.	4f\	.	4D\	.	4r	.	4r
4r	.	4r	.	4r	.	4b-\	.	4ff\
=36	=36	=36	=36	=36	=36	=36	=36	=36
4f\	.	4f\	.	4AAn/	.	4r	.	4r
4r	.	4r	.	4r	.	4cc\	.	4ee-\
4B-/	.	4f\	.	4BB-/	.	4r	.	4r
4r	.	4r	.	4r	.	4b-\	.	4dd\
!	!	!	!	!LO:LB:g=original	!	!	!	!
=37	=37	=37	=37	=37	=37	=37	=37	=37
!	!	!	!	!LO:SIC:v:s=4G	!	!	!	!
4E-/	.	4e-\	.	4A-\	.	4r	.	4r
4r	.	4r	.	4r	.	4aa-X\	.	4ccc\
4E-/	.	4e-\	.	4E-\	.	4r	.	4r
4r	.	4r	.	4r	.	4gg\	.	4bb-\
=38	=38	=38	=38	=38	=38	=38	=38	=38
!	!	!	!	!	!	!	!	!LO:TX:a:t=P:problem:takt nieczytelny - defekt źródła
4B-/	.	4f\	.	4D\	.	4r	.	4ryy
4r	.	4r	.	4r	.	4ff\	.	4ryy
4e-\	.	4g\	.	4E-\	.	4r	.	4r
4r	.	4r	.	4r	.	4ee-\	.	4ryy
!	!	!	!	!	!	!LO:LB:g=original	!	!LO:LB:g=original
=39	=39	=39	=39	=39	=39	=39	=39	=39
4f\	.	4a-\	.	4AA-X/	.	4r	.	4r
4r	.	4r	.	4r	.	4cc\	.	4ff\
!	!	!	!	!LO:TX:t=P:problem:4D poprawione na 4C	!	!	!	!
!LO:SIC:v:s=4A-	!	!	!	!LO:TX:a:t=c	!	!	!	!
4B-/	.	4f\	.	4C/	.	4r	.	4r
4r	.	4r	.	4r	.	4a-\	.	4dd\
!	!	!LO:LB:g=original	!	!	!	!	!	!
=40	=40	=40	=40	=40	=40	=40	=40	=40
4G/	.	4e-\	.	4E-\	.	4r	.	4r
4r	.	4r	.	4r	.	4g/	.	4ee-\
4B-/	.	4f\	.	4BB-/	.	4r	.	4r
4r	.	4r	.	4r	.	4a-/	.	4dd\
=41	=41	=41	=41	=41	=41	=41	=41	=41
4G/	.	4e-\	.	4EE-/	.	4g/	.	4ee-\
4G/	.	4e-\	.	4E-\	.	4r	.	4r
4G/	.	4e-\	.	4EE-/	.	4r	.	4r
4r	.	4r	.	4r	.	4ee-\	.	4gg\
!LO:LB:g=original	!	!	!	!	!	!	!	!
=42	=42	=42	=42	=42	=42	=42	=42	=42
!	!	!	!	!LO:TX:t=P:problem:poprawiony fragment – dopisany takt z 00r; błędnie 00r zamiast 0r	!	!	!	!
!	!	!	!	!LO:TX:a:t=2	!	!	!	!
2r	.	2r	.	0r	.	4ff\	.	4aa-\
.	.	.	.	.	.	4r	.	4r
4r	.	4r	.	.	.	2r	.	2r
4B-/	.	4f\	.	.	.	.	.	.
=43	=43	=43	=43	=43	=43	=43	=43	=43
4G/	.	4e-\	.	.	.	1r;	.	1r
!	!	!	!	!	!	!	!	!LO:TX:a:t=I.
4r	.	4r;>	.	.	.	.	.	.
!	!	!LO:TX:t=P:problem:takt niekompletny	!	!	!	!LO:TX:a:i:t=Finis	!	!LO:TX:a:i:t=Finis
2r;>	.	2ryy	.	.	.	.	.	.
=44:|!	=44:|!	=44:|!	=44:|!	=44:|!	=44:|!	=44:|!	=44:|!	=44:|!
*>C	*	*>C	*	*>C	*	*>C	*	*>C
*^	*	*	*	*	*	*	*	*
*2\right	*	*	*	*	*	*	*	*	*
!	!	!	!LO:TX:t=P:problem:zbędny takt w cor 2	!	!LO:TX:t=P:problem:zbędny takt w cor 2	!	!LO:TX:t=P:problem:zbędny takt w cor 2	!	!LO:TX:t=P:problem:zbędny takt w cor 2
2.d/	2.d\	.	1ryy	.	1ryy	.	1ryy	.	1ryy
4ryy	4ryy	.	.	.	.	.	.	.	.
*v	*v	*	*	*	*	*	*	*	*
=45	=45	=45	=45	=45	=45	=45	=45	=45
!LO:TX:a:t=23	!	!LO:TX:a:t=23	!	!LO:TX:a:i:t=Finis	!	!	!	!
00r	.	00r	.	4r	.	2.ee-\	.	2.gg\
.	.	.	.	4c\	.	.	.	.
.	.	.	.	4e-\	.	.	.	.
.	.	.	.	4c\	.	4ee-\	.	4gg\
=46	=46	=46	=46	=46	=46	=46	=46	=46
.	.	.	.	4Bn\	.	4ff\	.	4aa-\
.	.	.	.	4r	.	4r	.	8ff\L
.	.	.	.	.	.	.	.	8dd\J
.	.	.	.	4c\	.	4ee-\	.	4gg\
.	.	.	.	4r	.	4r	.	8ee-\L
.	.	.	.	.	.	.	.	8cc\J
=47	=47	=47	=47	=47	=47	=47	=47	=47
.	.	.	.	4B-\	.	4ff\	.	4aa-\
.	.	.	.	4r	.	4r	.	8ff\L
.	.	.	.	.	.	.	.	8dd\J
.	.	.	.	4c\	.	4ee-\	.	4gg\
.	.	.	.	4r	.	4r	.	8ee-\L
.	.	.	.	.	.	.	.	8cc\J
!	!	!	!	!LO:LB:g=original	!	!	!	!
=48	=48	=48	=48	=48	=48	=48	=48	=48
!	!	!	!	!	!	!LO:TX:t=P:problem:t. 47 dopisany nad pięciolinią	!	!
!	!	!	!	!	!	!LO:TX:a:i:t=e.	!	!
.	.	.	.	4BBn/	.	4dd\	.	4r
.	.	.	.	4r	.	4r	.	4ff\
!	!	!	!	!LO:N:vis=2	!	!LO:TX:a:i:t=d.	!	!LO:TX:t=P:problem:fragment nieczytelny - defekt źródła
.	.	.	.	4C/	.	4cc\	.	2ryy
.	.	.	.	4r	.	4r	.	.
!	!	!	!	!	!	!	!	!LO:LB:g=original
=49	=49	=49	=49	=49	=49	=49	=49	=49
00r	.	00r	.	4GG/	.	4bX\	.	4dd\
.	.	.	.	4G\	.	4b\	.	4dd\
!	!	!	!	!LO:N:vis=2	!	!	!	!
.	.	.	.	4GG/	.	4b\	.	4dd\
.	.	.	.	4r	.	4r	.	4cc\
=50	=50	=50	=50	=50	=50	=50	=50	=50
.	.	.	.	4r	.	2.ee-\	.	2.gg\
.	.	.	.	4c\	.	.	.	.
.	.	.	.	4e-\	.	.	.	.
.	.	.	.	4c\	.	4ee-\	.	4gg\
!	!	!	!	!	!	!LO:LB:g=original	!	!
=51	=51	=51	=51	=51	=51	=51	=51	=51
.	.	.	.	4Bn\	.	4ff\	.	8aa-\L
.	.	.	.	.	.	.	.	8ff\
.	.	.	.	4r	.	4r	.	8ee-\
.	.	.	.	.	.	.	.	8dd\J
.	.	.	.	4c\	.	4ee-\	.	8gg\L
.	.	.	.	.	.	.	.	8ee-\
.	.	.	.	4r	.	4r	.	8dd\
.	.	.	.	.	.	.	.	8cc\J
=52	=52	=52	=52	=52	=52	=52	=52	=52
!	!	!	!	!LO:SIC:v:s=4Bn	!	!	!	!
.	.	.	.	4B-\	.	4ff\	.	8aa-\L
.	.	.	.	.	.	.	.	8ff\
.	.	.	.	4r	.	4r	.	8ee-\
.	.	.	.	.	.	.	.	8dd\J
.	.	.	.	4c\	.	4ee-\	.	8gg\L
.	.	.	.	.	.	.	.	8ee-\
.	.	.	.	4r	.	4r	.	8dd\
.	.	.	.	.	.	.	.	8cc\J
=53	=53	=53	=53	=53	=53	=53	=53	=53
00r	.	00r	.	4G\	.	4r	.	4r
.	.	.	.	4r	.	4cc\	.	4ee-\
.	.	.	.	4GG/	.	4r	.	4r
.	.	.	.	4r	.	4bX\	.	4dd\
=54	=54	=54	=54	=54	=54	=54	=54	=54
.	.	.	.	4C/	.	4e-/	.	4cc\
.	.	.	.	4C/	.	4e-/	.	4cc\
.	.	.	.	4C/	.	4e-/	.	4cc\
.	.	.	.	4r	.	4ee-\	.	4gg\
=55	=55	=55	=55	=55	=55	=55	=55	=55
.	.	.	.	4r	.	4bX\	.	4dd\
.	.	.	.	4G\	.	4r	.	4r
.	.	.	.	4GG/	.	4r	.	4r
.	.	.	.	4r	.	4dd\	.	4ff\
=56	=56	=56	=56	=56	=56	=56	=56	=56
.	.	.	.	4r	.	4cc\	.	4ee-\
.	.	.	.	4c\	.	4r	.	4r
.	.	.	.	4C/	.	4r	.	4r
.	.	.	.	4r	.	4ee-\	.	4gg\
!	!	!	!	!LO:LB:g=original	!	!	!	!
=57	=57	=57	=57	=57	=57	=57	=57	=57
00r	.	00r	.	4r	.	4bX\	.	4dd\
.	.	.	.	4G\	.	4b\	.	4dd\
.	.	.	.	4GG/	.	4b\	.	4dd\
.	.	.	.	4r	.	4dd\	.	4ff\
!	!	!	!	!	!	!	!	!LO:LB:g=original
=58	=58	=58	=58	=58	=58	=58	=58	=58
!	!	!	!	!	!	!LO:TX:t=P:problem:t. 57 dopisany nad pięciolinią	!	!
!	!	!	!	!	!	!LO:TX:a:i:t=d	!	!
.	.	.	.	4r	.	4cc\	.	4ee-\
!	!	!	!	!	!	!LO:TX:a:i:t=d	!	!
.	.	.	.	4c\	.	4cc\	.	4ee-\
!	!	!	!	!	!	!LO:TX:a:i:t=d	!	!
.	.	.	.	4C/	.	4cc\	.	4ee-\
.	.	.	.	4r	.	4r	.	4cc\
=59	=59	=59	=59	=59	=59	=59	=59	=59
.	.	.	.	4r	.	2.ee-\	.	2.gg\
.	.	.	.	4c\	.	.	.	.
.	.	.	.	4e-\	.	.	.	.
.	.	.	.	4c\	.	4ee-\	.	4gg\
=60	=60	=60	=60	=60	=60	=60	=60	=60
.	.	.	.	4Bn\	.	4ff\	.	4aa-\
.	.	.	.	4r	.	4r	.	8ff\L
.	.	.	.	.	.	.	.	8dd\J
.	.	.	.	4c\	.	4ee-\	.	4gg\
!	!	!	!	!	!	!LO:TX:t=P:problem:brak kreski taktowej	!	!
.	.	.	.	4r	.	4r	.	8ee-\L
.	.	.	.	.	.	.	.	8cc\J
!	!	!	!	!	!	!LO:LB:g=original	!	!
=61	=61	=61	=61	=61	=61	=61-	=61	=61
!	!	!	!	!LO:SIC:v:s=4Bn	!	!	!	!
00r	.	00r	.	4B-\	.	4ff\	.	4aa-\
.	.	.	.	4r	.	4r	.	8ff\L
.	.	.	.	.	.	.	.	8dd\J
.	.	.	.	4c\	.	4ee-\	.	4gg\
.	.	.	.	4r	.	4r	.	8ee-\L
.	.	.	.	.	.	.	.	8cc\J
=62	=62	=62	=62	=62	=62	=62	=62	=62
.	.	.	.	4BBn/	.	4r	.	4r
.	.	.	.	4r	.	4cc\	.	4ff\
.	.	.	.	4C/	.	4r	.	4r
.	.	.	.	4r	.	4bX\	.	4ee-\
=63	=63	=63	=63	=63	=63	=63	=63	=63
.	.	.	.	4GG/	.	4bX\	.	4dd\
.	.	.	.	4G\	.	4b\	.	4dd\
.	.	.	.	4GG/	.	4b\	.	4dd\
.	.	.	.	4r	.	4r	.	4cc\
=64	=64	=64	=64	=64	=64	=64	=64	=64
.	.	.	.	4r	.	2.ee-\	.	2.gg\
.	.	.	.	4c\	.	.	.	.
.	.	.	.	4e-\	.	.	.	.
.	.	.	.	4c\	.	4ee-\	.	4gg\
!	!	!	!	!LO:LB:g=original	!	!	!	!
=65	=65	=65	=65	=65	=65	=65	=65	=65
0r	.	0r	.	4Bn\	.	4ff\	.	8aa-X\L
.	.	.	.	.	.	.	.	8ff\
.	.	.	.	4r	.	4r	.	8ee-\
.	.	.	.	.	.	.	.	8dd\J
.	.	.	.	4c\	.	4ee-\	.	8gg\L
.	.	.	.	.	.	.	.	8ee-\
.	.	.	.	4r	.	4r	.	8dd\
.	.	.	.	.	.	.	.	8cc\J
!	!	!	!	!	!	!	!	!LO:LB:g=original
=66	=66	=66	=66	=66	=66	=66	=66	=66
!	!	!	!	!LO:SIC:v:s=4Bn	!	!	!	!
.	.	.	.	4B-\	.	4ff\	.	8aa-\L
.	.	.	.	.	.	.	.	8ff\
.	.	.	.	4r	.	4r	.	8ee-\
.	.	.	.	.	.	.	.	8dd\J
.	.	.	.	4c\	.	4ee-\	.	8gg\L
.	.	.	.	.	.	.	.	8ee-\
.	.	.	.	4r	.	4r	.	8dd\
.	.	.	.	.	.	.	.	8cc\J
=67	=67	=67	=67	=67	=67	=67	=67	=67
1r	.	1r	.	4G\	.	4r	.	4r
.	.	.	.	4r	.	4cc\	.	4ee-\
.	.	.	.	4GG/	.	4r	.	4r
.	.	.	.	4r	.	4bX\	.	4dd\
=68	=68	=68	=68	=68	=68	=68	=68	=68
!	!	!LO:TX:t=P:problem:brak taktu	!	!	!	!	!	!
1r;>	.	1ryy	.	4CC/	.	4cc\	.	4cc\
.	.	.	.	4C/	.	4r	.	4r
!LO:TX:a:t=I	!	!	!	!	!	!	!	!
.	.	.	.	4CC/	.	4r	.	4r
.	.	.	.	4r;>	.	4cc;>\	.	4ee-;>\
!	!	!	!	!	!	!LO:LB:g=original	!	!
=69	=69	=69	=69	=69	=69	=69	=69	=69
!LO:TX:b:i:t=adagio	!	!LO:TX:b:i:t=adagio	!	!LO:TX:b:i:t=adagio	!	!LO:TX:t=P:problem:niekompletny takt - defekt źródła	!	!LO:TX:b:i:t=Adagio
2B-/	.	2f;>\	.	2BB-;>/	.	2dd\yy	.	2ff\
2r	.	2r	.	2r	.	8r	.	8r
!	!	!	!	!	!	!LO:TX:b:i:t=Adagio	!	!
.	.	.	.	.	.	8dd\L	.	8ff\L
.	.	.	.	.	.	8ee-\	.	8gg\
.	.	.	.	.	.	8ff\J	.	8aa-\J
=70	=70	=70	=70	=70	=70	=70	=70	=70
!	!	!	!	!	!	!	!	!LO:TX:t=P:problem:brak kreski taktowej
!LO:N:vis=2	!	!	!	!	!	!	!	!LO:N:vis=2
1B-;<	.	1f;>	.	2D/	.	2ff;>	.	1aa-;>
.	.	.	.	2BB-/	.	2ee-\;>	.	.
=71	=71	=71	=71	=71	=71	=71	=71	=71
*	*	*	*	*2\right	*	*	*	*
!LO:TX:b:i:t=Fine da capo	!	!LO:TX:b:i:t=Finale dacapo	!	!	!	!LO:TX:a:i:t=Finale Da Capo	!	!LO:TX:a:i:t=Da Capo ad Fin
!	!	!	!	!	!	!LO:TX:t=P:problem:brak taktu	!	!
!LO:TX:a:t=P:problem:w źródle ta adnotacja zapisana na pięciolinii, za ostatnim taktem	!	!	!	!	!	!LO:TX:a:t=P:problem:w źródle ta adnotacja zapisana na pięciolinii, za ostatnim taktem	!	!
1e-;>	.	1g;>	.	2E-;>\	.	1ryy	.	1gg;>
!	!	!	!	!LO:TX:b:i:t=Fine dacapo	!	!	!	!
.	.	.	.	2EE-;>/	.	.	.	.
==	==	==	==	==	==	==	==	==
*-	*-	*-	*-	*-	*-	*-	*-	*-
!!!system-decoration: [(g1)][(g2)]
!!!RDF**kern: > = above
!!!RDF**kern: < = below
!!!AIN: 2 clars 2 empty 1 fagot
!!!ENC: Katarzyna Serwa
!!!END: 2021-06-18
!!!EED: Antoni Szymański
!!!EST: 2021-07-19
